actions/24/edit-table-cell-merge.svg

<?xml version="1.0" encoding="UTF-8" standalone="no"?>
<svg
   width="24"
   height="24"
   viewBox="0 0 24 24"
   version="1.1"
   id="svg7"
   sodipodi:docname="edit-table-cell-merge.svg"
   inkscape:version="1.1.2 (0a00cf5339, 2022-02-04)"
   xmlns:inkscape="http://www.inkscape.org/namespaces/inkscape"
   xmlns:sodipodi="http://sodipodi.sourceforge.net/DTD/sodipodi-0.dtd"
   xmlns="http://www.w3.org/2000/svg"
   xmlns:svg="http://www.w3.org/2000/svg">
  <sodipodi:namedview
     id="namedview9"
     pagecolor="#000000"
     bordercolor="#666666"
     borderopacity="1.0"
     inkscape:pageshadow="2"
     inkscape:pageopacity="0"
     inkscape:pagecheckerboard="0"
     showgrid="false"
     inkscape:zoom="40.187235"
     inkscape:cx="12.0063"
     inkscape:cy="11.968975"
     inkscape:window-width="1886"
     inkscape:window-height="967"
     inkscape:window-x="0"
     inkscape:window-y="29"
     inkscape:window-maximized="1"
     inkscape:current-layer="svg7" />
  <defs
     id="defs3">
    <style
       id="current-color-scheme"
       type="text/css">
   .ColorScheme-Text { color:#eeeeec; } .ColorScheme-Highlight { color:#367bf0; } .ColorScheme-NeutralText { color:#ffcc44; } .ColorScheme-PositiveText { color:#3db47e; } .ColorScheme-NegativeText { color:#dd4747; }
  </style>
  </defs>
  <path
     style="fill:currentColor"
     class="ColorScheme-Text"
     d="M 1,1 V 15 H 15 V 1 Z M 3,3 H 5 V 5 H 7 V 3 h 2 v 2 h 2 V 3 h 2 v 2 h -2 v 2 h 2 v 2 h -2 v 2 h 2 v 2 H 11 V 11 H 9 v 2 H 7 V 11 H 5 v 2 H 3 V 11 H 5 V 9 H 3 V 7 H 5 V 5 H 3 Z m 4,7.412581 v 0 L 7,5.5606873 v 0 L 6.6657339,5.5013991 5.2528331,7.6207504 v 0 l -0.046423,0.6888645 1.4356414,2.1534621 z m 2,-0.07412 0.4221906,0.02825 1.3780764,-2.0671146 v 0 L 10.788053,7.6820799 9.3527281,5.5290922 9,5.5606873 v 0 z"
     transform="translate(4,4)"
     id="path5"
     sodipodi:nodetypes="cccccccccccccccccccccccccccccccccccccccccccccccccccccccccccccc" />
</svg>

<svg xmlns="http://www.w3.org/2000/svg" width="24" height="24" viewBox="0 0 24 24">
 <defs>
  <style id="current-color-scheme" type="text/css">
   .ColorScheme-Text { color:#eeeeec; } .ColorScheme-Highlight { color:#367bf0; } .ColorScheme-NeutralText { color:#ffcc44; } .ColorScheme-PositiveText { color:#3db47e; } .ColorScheme-NegativeText { color:#dd4747; }
  </style>
 </defs>
 <path style="fill:currentColor" class="ColorScheme-Text" d="m1 1v14h14v-14h-14zm2 2h2v2h2v-2h2v2h2v-2h2v2h-2v2h2v2h-2v2h2v2h-2v-2h-2v2h-2v-2h-2v2h-2v-2h2v-2h-2v-2h2v-2h-2v-2zm4 8v-6l-2 3 2 3zm2 0l2-3-2-3v6z" transform="translate(4 4)"/>
</svg>
